icons/papirus/48x48/apps/puddletag.svg

<?xml version="1.0" encoding="UTF-8" standalone="no"?>
<!-- Created with Inkscape (http://www.inkscape.org/) -->
<svg id="svg2817" xmlns:rdf="http://www.w3.org/1999/02/22-rdf-syntax-ns#" xmlns="http://www.w3.org/2000/svg" height="48" width="48" version="1.0" xmlns:cc="http://creativecommons.org/ns#" xmlns:dc="http://purl.org/dc/elements/1.1/">
 <metadata id="metadata57">
  <rdf:RDF>
   <cc:Work rdf:about="">
    <dc:format>image/svg+xml</dc:format>
    <dc:type rdf:resource="http://purl.org/dc/dcmitype/StillImage"/>
    <dc:title/>
   </cc:Work>
  </rdf:RDF>
 </metadata>
 <path id="path3237" opacity=".3" style="enable-background:new" d="m2.0234 28.568c-0.0083 0.175-0.0234 0.347-0.0234 0.524 0 6.025 4.9249 10.908 11 10.908h23.375c5.316 0 9.625-4.273 9.625-9.545 0-0.173-0.014-0.343-0.023-0.514-0.258 5.044-4.452 9.059-9.602 9.059h-23.375c-5.9129 0-10.723-4.63-10.977-10.432z"/>
 <path id="path5884" style="enable-background:new" d="m24 9c-5.695 0-10.545 3.458-12.633 8.352-5.3013 0.782-9.367 5.264-9.367 10.739 0 6.025 4.9249 10.909 11 10.909h23.375c5.316 0 9.625-4.274 9.625-9.545 0-4.9-3.715-8.915-8.508-9.461-1.25-6.254-6.818-10.994-13.492-10.994z" fill="#d2d2d2"/>
 <path id="path4251" opacity=".2" fill="#fff" d="m29 19-9 2v2 5.1758a3 3 0 0 0 -1 -0.176 3 3 0 0 0 -3 3 3 3 0 0 0 3 3 3 3 0 0 0 3 -3v-8.4434l5-1.1113v4.7305a3 3 0 0 0 -1 -0.176 3 3 0 0 0 -3 3 3 3 0 0 0 3 3 3 3 0 0 0 3 -3v-8-2z"/>
 <path id="path4228" fill="#dd5789" d="m29 18-9 2v2 5.1758a3 3 0 0 0 -1 -0.176 3 3 0 0 0 -3 3 3 3 0 0 0 3 3 3 3 0 0 0 3 -3v-8.4434l5-1.1113v4.7305a3 3 0 0 0 -1 -0.176 3 3 0 0 0 -3 3 3 3 0 0 0 3 3 3 3 0 0 0 3 -3v-8-2z"/>
 <path id="path4189" opacity=".2" style="enable-background:new" d="m24 9c-5.695 0-10.545 3.457-12.633 8.352-5.3013 0.781-9.367 5.265-9.367 10.74 0 0.161 0.0165 0.317 0.0234 0.476 0.2507-5.234 4.213-9.46 9.3436-10.216 2.088-4.895 6.938-8.352 12.633-8.352 6.674 0 12.242 4.739 13.492 10.994 4.624 0.526 8.234 4.284 8.485 8.947 0.008-0.162 0.023-0.322 0.023-0.486 0-4.9-3.715-8.915-8.508-9.461-1.25-6.255-6.818-10.994-13.492-10.994z" fill="#fff"/>
</svg>

<?xml version="1.0" encoding="UTF-8" standalone="no"?>
<!-- Created with Inkscape (http://www.inkscape.org/) -->

<svg
   xmlns:dc="http://purl.org/dc/elements/1.1/"
   xmlns:cc="http://creativecommons.org/ns#"
   xmlns:rdf="http://www.w3.org/1999/02/22-rdf-syntax-ns#"
   xmlns:svg="http://www.w3.org/2000/svg"
   xmlns="http://www.w3.org/2000/svg"
   xmlns:sodipodi="http://sodipodi.sourceforge.net/DTD/sodipodi-0.dtd"
   xmlns:inkscape="http://www.inkscape.org/namespaces/inkscape"
   id="svg2817"
   height="48"
   width="48"
   version="1.0"
   inkscape:version="0.91 r"
   sodipodi:docname="puddletag.svg">
  <defs
     id="defs14" />
  <sodipodi:namedview
     pagecolor="#eff0f1"
     bordercolor="#666666"
     borderopacity="1"
     objecttolerance="10"
     gridtolerance="10"
     guidetolerance="10"
     inkscape:pageopacity="0"
     inkscape:pageshadow="2"
     inkscape:window-width="1600"
     inkscape:window-height="846"
     id="namedview12"
     showgrid="false"
     inkscape:zoom="4.3299648"
     inkscape:cx="24"
     inkscape:cy="24"
     inkscape:window-x="-5"
     inkscape:window-y="28"
     inkscape:window-maximized="1"
     inkscape:current-layer="svg2817" />
  <metadata
     id="metadata57">
    <rdf:RDF>
      <cc:Work
         rdf:about="">
        <dc:format>image/svg+xml</dc:format>
        <dc:type
           rdf:resource="http://purl.org/dc/dcmitype/StillImage" />
        <dc:title></dc:title>
      </cc:Work>
    </rdf:RDF>
  </metadata>
  <path
     inkscape:connector-curvature="0"
     d="M 2.0234,28.568 C 2.0151,28.743 2,28.915 2,29.092 2,35.117 6.9249,40 13,40 l 23.375,0 C 41.691,40 46,35.727 46,30.455 46,30.282 45.986,30.112 45.977,29.941 45.719,34.985 41.525,39 36.375,39 L 13,39 C 7.0871,39 2.277,34.37 2.023,28.568 Z"
     style="opacity:0.3;enable-background:new"
     id="path3237" />
  <path
     inkscape:connector-curvature="0"
     d="M 24,9 C 18.305,9 13.455,12.458 11.367,17.352 6.0657,18.134 2,22.616 2,28.091 2,34.116 6.9249,39 13,39 l 23.375,0 C 41.691,39 46,34.726 46,29.455 46,24.555 42.285,20.54 37.492,19.994 36.242,13.74 30.674,9 24,9 Z"
     style="fill:#d2d2d2;enable-background:new;fill-opacity:1"
     id="path5884" />
  <path
     id="path4251"
     d="m 29,19 -9,2 0,2 0,5.1758 a 3,3 0 0 0 -1,-0.176 3,3 0 0 0 -3,3 3,3 0 0 0 3,3 3,3 0 0 0 3,-3 l 0,-8.4434 5,-1.1113 0,4.7305 a 3,3 0 0 0 -1,-0.176 3,3 0 0 0 -3,3 3,3 0 0 0 3,3 3,3 0 0 0 3,-3 l 0,-8 0,-2 z"
     inkscape:connector-curvature="0"
     style="opacity:0.2;fill:#ffffff" />
  <path
     id="path4228"
     d="m 29,18 -9,2 0,2 0,5.1758 a 3,3 0 0 0 -1,-0.176 3,3 0 0 0 -3,3 3,3 0 0 0 3,3 3,3 0 0 0 3,-3 l 0,-8.4434 5,-1.1113 0,4.7305 a 3,3 0 0 0 -1,-0.176 3,3 0 0 0 -3,3 3,3 0 0 0 3,3 3,3 0 0 0 3,-3 l 0,-8 0,-2 z"
     inkscape:connector-curvature="0"
     style="fill:#dd5789" />
  <path
     inkscape:connector-curvature="0"
     d="M 24,9 C 18.305,9 13.455,12.457 11.367,17.352 6.0657,18.133 2,22.617 2,28.092 2,28.253 2.0165,28.409 2.0234,28.568 2.2741,23.334 6.2364,19.108 11.367,18.352 13.455,13.457 18.305,10 24,10 c 6.674,0 12.242,4.739 13.492,10.994 4.624,0.526 8.234,4.284 8.485,8.947 C 45.985,29.779 46,29.619 46,29.455 46,24.555 42.285,20.54 37.492,19.994 36.242,13.739 30.674,9 24,9 Z"
     style="opacity:0.2;fill:#ffffff;enable-background:new"
     id="path4189" />
</svg>
